X:1
T:Ave Maria
T:Ave Maria
T:Claudio Monteverdi
T:tribus vocibus Sacrae Cantiunculae
C:Claudio Monteverdi
%%score [ 1 2 3 ]
L:1/8
Q:1/4=80
M:4/4
K:F
V:1 treble nm="S"
V:2 treble nm="A"
V:3 bass nm="B"
V:1
 F4 B2 A2 | G4 A4 | z2 c2 B2 G2 | A4 F4 | z2 D3 D C2 | E4 D4 | z2 A4 G2 | A2 d3 c/B/ AF | %8
w: A- ve Ma-|ri- a,|gra- ti- a|ple- na,|Do- mi- nus|te- cum,|Do- mi-|nus te- * * * *|
 G4 D2 F2- | F2 E2 F2 D2 | C2 c2 d2 B2 | c2 d2 c3 B | A2 D2 E2 F2 | G2 FE FD G2 | C2 D4 F2 | %15
w: * cum, be-|* ne- di- cta|tu in mu- li-|e- * * ri-|bus, et be- ne-|di- * * * * *|ctus fru- ctus|
 D3 E F2 C2- | C2 F4 E2 | D4 D2 G2- | G2 F2 A4- | A4 D4 | z2 F4 E2 | F2 G4 F2 | z2 F4 E2 | D4 C4 | %24
w: ven- * * tris|_ tu- i|Je- sus, tu-|* i Je-|* sus.|San- cta|Ma- ri- a,|ma- ter|De- i,|
 F4 G2 A2 | B2 AG A2 F2 | z2 A2 F2 G2- | G2 ^F2 G2 E2 | C2 D2 E4 | C2 G2 E2 F2 | G3 E A4 | E4 A4 | %32
w: o- ra pro|no- * * * bis|pec- ca- to-|* ri- bus, nunc|et in ho-|ra, nunc et in|ho- * *|ra mor-|
 F4 F2 F2 | B8 | A8 |] %35
w: tis no- strae.|A-|men.|
V:2
 z8 | z4 F4 | B2 A2 G4 | F4 z2 c2 | B2 G2 A4 | G4 z2 D2- | D D C4 E2- | E2 D2 z2 F2- | %8
w: |A-|ve Ma- ri-|a, gra-|ti- a ple-|na, Do\-|* mi- nus te-|* cum, be-|
 F2 E2 F2 D2 | C2 G2 A2 F2 | G2 A2 D2 G2 | A2 F2 E2 A2 | F4 z4 | z2 G2 A2 B2 | c2 BA BG c2 | %15
w: * ne- di- cta|tu in mu- li-|e- ri- bus, in|mu- li- e- ri-|bus,|et be- ne-|di- * * * * *|
 F2 A4 c2 | A3 B cB/A/ GA | B2 F2 G2 _E2 | D4 C2 F2- | F2 E2 F2 G2- | G2 F2 z2 A2- | A2 G2 A2 B2- | %22
w: ctus fru- ctus|ven- * * * * * *|* tris tu- i|Je- sus. San-|* cta Ma- ri-|* a, san-|* cta Ma- ri-|
 B2 A2 z4 | z2 F4 E2 | D4 C2 C2 | D2 E2 F2 ED | E4 D4 | z2 A2 D2 G2- | G2 F2 G2 c2 | A2 B2 c4 | %30
w: * a,|ma- ter|De- i, o-|ra pro no- * *|* bis|pec- ca- to-|* ri- bus, nunc|et in ho-|
 B2 A2 F3 G | A2 G2 F3 G | A4 D4- | D4 D2 E2 | F8 |] %35
w: ra, nunc et in|ho- ra mor- tis|no- strae|* A\- *|men.|
V:3
 z8 | z8 | z8 | F,4 B,2 A,2 | G,4 F,4 | z2 C2 B,2 G,2 | A,4 F,2 C2- | C C B,2 D4 | C4 B,4 | %9
w: |||A- ve Ma-|ri- a,|gra- ti- a|ple- na, Do-|* mi- nus te-|* cum,|
 z4 z2 B,2- | B,2 A,2 B,2 G,2 | F,4 A,4 | D2 B,2 C2 D2 | C4 z4 | F,4 G,2 A,2 | %15
w: be-|* ne- di- cta|tu in|mu- li- e- ri-|bus,|et be- ne-|
 B,A,/G,/ F,3 G, A,2 | F,4 z2 G,2- | G,2 B,2 G,3 A, | B,4 A,2 D2- | D2 C2 B,4- | B,4 A,4 | %21
w: di- * * * * *|ctus fru\-|* ctus ven- *|* tris tu-|* i Je-|* sus.|
 z4 z2 B,2- | B,2 A,2 B,2 C2- | C2 B,2 z4 | z2 B,4 A,2 | G,4 F,2 F,2 | G,2 A,2 B,2 A,G, | A,4 G,4 | %28
w: San-|* cta Ma- ri-|* a,|ma- ter|De- i, o-|ra pro no- * *|* bis|
 z2 B,2 G,2 A,2- | A,2 G,2 A,2 D2 | B,2 C2 D4 | C4 z2 D2- | D2 C2 B,2 A,2 | G,8 | F,8 |] %35
w: pec- ca- to-|* ri- bus, nunc|et in ho-|ra mor-|* tis no- strae.|A-|men.|

